X:1
T:Title
%%score [ ( 1 2 3 ) 4 5 ( 6 7 ) ]
L:1/8
Q:1/4=120
M:4/4
K:G
V:1 treble nm="Midi_74" snm=" "
V:2 treble 
V:3 treble 
V:4 treble nm="Midi_74" snm=" "
V:5 treble nm="Midi_74"
V:6 bass nm="Midi_74"
V:7 bass 
V:1
 G4 G2 G2 | G3 G (AB) (cd) |"^Full Fathom Five" B6 Bc | d3 G B2 (AG) | %4
w: Full fa- thom|five thy fa * ther *|lies; of his|bones are co- ral *|
w: ||||
"^Robert Johnson""^arr. A.S." A4 A3 B |[M:4/4] c6 G2 | G2 A2 B4 | B2 ^c2 d2 A2 | %8
w: made; those are|pearls that|were his eyes:|no- thing of him|
w: ||||
 !courtesy!=c2 B2 A4- | A2 AA B2 AB | (A3 B) c4 | c2 A2 (de) =f2 | e3 d d4 | A2 F2 B2 G2 | %14
w: that doth fade,|* but doth suf- fer a|sea * change|in- to some * thing|rich and strange.|Sea- nymphs hour- ly|
w: |||||Sea * nymphs *|
 c2 A2 d4 | d6 cB | A2 A2 c4- | c2 BA G2 G2 | B4 A4 | G8 |: d3 c B2 A2 | G4 z4 | e3 d c2 B2 | %23
w: ring his knell:|Hark! now I|hear them, Hark!|* now I hear them,|ding- dong|bell.|Ding- dong, ding- dong,|bell,|ding- dong, ding- dong,|
w: |||||||||
 A4 z4 | d3 c B2 A2 | G8 :| %26
w: bell,|ding- dong, ding- dong|bell.|
w: |||
V:2
 D4 E2 G2 | G2 G2 G2 F2 | G6 GA | D3 D G2 (FE) | F4 F3 G |[M:4/4] A6 E2 | E2 F2 G4 | %7
 D2 (AG) F2 F2 | (GA) (AG) (G2 FE | F2) FF G2 AG | (A2 G=F) G4 | A3 G =F2 A2 | A2 E2 =F4 | %13
 !courtesy!^F2 D2 G2 E2 | x8 | x8 | x4 x2 xx | x2 x2 x4 | x8 | x8 |: x8 | x8 | x8 | x8 | x8 | x8 :| %26
V:3
 x8 | x8 | x8 | x8 | x8 |[M:4/4] x8 | x8 | x8 | x8 | x8 | x8 | x8 | x8 | x8 | G2 F2 G4 | B6 AG | %16
 F2 F2 A4- | A2 GF E2 E2 | (F2 G2- G2) F2 | G8 |: x8 | x8 | x8 | x8 | x8 | x8 :| %26
V:4
[K:C] z8 | z8 | z8 | z8 | z8 |[M:4/4] z8 | z8 | z8 | z8 | z8 |[M:4/4] z8 | z8 | z8 | z8 | %14
w: ||||||||||||||
[M:4/4] z8 | z8 | z8 | z8 | z8 | z8 |:[K:G][M:4/4][K:treble] z8 | G3 =F E2 D2 | C4 E3 D | %23
w: |||||||Ding- dong, ding- dong,|bell, ding- dong|
 D4 D2 (EF) | G4 G2 F2 | G8 :| %26
w: bell, ding- dong *|bell, ding- dong|bell.|
V:5
[K:C] z8 | z8 | z8 | z8 | z8 |[M:4/4] z8 | z8 | z8 | z8 | z8 |[M:4/4] z8 | z8 | z8 | z8 | %14
w: ||||||||||||||
[M:4/4] z8 | z8 | z8 | z8 | z8 | z8 |:[K:G][M:4/4][K:treble-8] z8 | G2 (AB) (c2 B2) | c3 B A2 G2 | %23
w: |||||||Ding- dong * bell, *|ding- dong, ding- dong,|
 F4 d3 c | B2 A2 G2 (dc) | B8 :| %26
w: bell, ding- dong,|ding- dong, ding- dong, *|bell.|
V:6
 B,4 C2 D2 | E2 D2 C2 D2 | D6 DC | B,3 B, B,2 ^C2 | D4 D3 D |[M:4/4] (C3 D E2) C2 | E2 (DC) B,4 | %7
w: |||||||
 D2 A,2 A,2 D2 | !courtesy!=C2 D2 D4- | D2 DD D2 DB, | (C3 D) E4 | =F3 C D2 D2 | D2 ^C2 D4 | %13
w: ||||||
 D4 D4 | E2 (DC) B,4 | D6 EE | D2 D2 C2 B,A, | G,2 G,2 C2 E2 | D4 C4 | B,8 |: x8 | x8 | x8 | x8 | %24
w: Sea- nymphs|||||||||||
 x8 |"^This arrangement""^?""^Andrew Sims 2002" x8 :| %26
w: ||
V:7
 G,,4 C,2 B,,2 | C,2 B,,2 A,,2 D,2 | G,,6 G,G, | G,3 F, E,2 E,2 | D,4 D,3 D, | %5
w: |||||
w: |||||
[M:4/4] (A,,3 B,, C,2) C,2 | C,2 (B,,A,,) G,,4 | G,2 (F,E,) D,2 D,2 | (E,F,) G,2 D,4 | %9
w: ||||
w: ||||
 D,3 D, G,2 F,G, | (=F,2 E,D,) C,4 | =F,3 E, D,2 (F,G,) | A,2 A,,2 D,4 | D,4 B,,4 | %14
w: But * * * *|||||
w: |||||
 A,,2 A,,2 G,,4 | (G,,3 A,,) B,,2 C,2 | D,2 D,2 A,,4- | A,,2 B,,2 C,2 C,2 | D,4 D,4 | G,,8 |: %20
w: ||||||
w: ring his knell:|Hark! * now I|hear them, Hark!|* I hear them,|ding- dong|bell.|
 z4 G,3 =F, | E,2 D,2 C,2 G,2 | C,8 | D,3 C, B,,2 A,,2 | G,,4 D,4 | G,,8 :| %26
w: Ding- dong,|ding- dong, ding- dong,|bell,|ding- dong, ding- dong,|ding- dong,|bell.|
w: ||||||

